!!!OTL: 515. Wie ist doch die Erde so schön!
!!!COM: Gust. Klauer
!!!ODT: 1850
!!!ARE: Europa, Mitteleuropa, Deutschland
!!!SCT: B0515
!!!TXL: @@DE
!!!YEM: Copyright 1995, estate of Helmut Schaffrath.
**kern	**text
*ICvox	*
*Ivox	*
*clefG2	*
*M6/8	*
*k[]	*
*C:	*
!LO:TX:a:t=Lebhaft.	!
{8g	Wie
=1	=1
8g	iſt
8e	doch
8g	die
8ee	Er-
8dd	-de
8cc	ſo
=2	=2
4b^	ſchön,
8a	ſo
4cc}	ſchön!
{8a	Das
=3	=3
8.g	wiſ-
16f	-ſen
8e	die
8dL	Vö-
8eJ	.
8f	-ge-
=4	=4
[4.e	-lein.
8e]	.
8r}	.
{8e	Sie
=5	=5
8.e	ha-
16f	-ben
8e	ſo
4cc	leicht
8b	Ge-
=6	=6
4.b^	-ſie-
4a}	-der
{8a	und
=7	=7
8.g	ſin-
16a	-gen
8g	ſo
4ee	fro-
8dd	-he
=8	=8
4.dd^	Lie-
8cc}	-der
{8g	in
8g	den
=9	=9
4a	blau
8b	en
(8.dd	Him-
16cc)	-mel
8b	hin-
=10	=10
(4.a	-ein,
8a)}	.
{8cc	in
8a	den
=11	=11
(<8g	blau-
8cc)	.
8ee	-en
8dd	Him-
8a	-mel
8b	hin-
=12	=12
[4.cc	-ein.
8cc]	.
8r}	.
==	==
!!!AGN: Wander - Lied
!!!GTL: Wanderlieder
!!!ONB: ESAC (Essen Associative Code) Database: BOEHME
!!!AMT: compound duple
!!!AIN: vox
!!!EED: Helmut Schaffrath
!!!EEV: 1.0
!!!RDF**kern: < = below
!!@@COMMENT:"Gedicht von Rob. Reinick: "Lieder eines Malers". Düſſeldorf 1838 S. 15. Muſik von dem
!!früh verſtorbenen talentvollen Organiſten und Seminarlehrers G. Klauer in Eisleben. Er ſtarb im 27. Jahre 1854."
!!@@END:
!!!Text: R. Reinick
!!!URL-scan: https://archive.org/details/BoehmeVtLieder1895/page/n411/mode/2up
!!!ENC: Anna Maria Matuszewska
!!!EEV: 2024/11/07
*-	*-
